;FLAVOR:Marlin
;TIME:5823
;Filament used: 4.36073m, 0m
;Layer height: 0.2
;MINX:164.55
;MINY:140.05
;MINZ:0.2
;MAXX:235.45
;MAXY:159.95
;MAXZ:73.2
;Generated with Cura_SteamEngine 4.6.1
T0
M140 S50
M105
M190 S50
M104 S205
M105
M109 S205
M82 ;absolute extrusion mode
G28 ;Home
G1 Z15.0 F6000 ;Move the platform down 15mm
;Prime the extruder
G92 E0
G1 F200 E3
G92 E0
G92 E0
G92 E0
G1 F4200 E-8
;LAYER_COUNT:366
;LAYER:0
M107
G1 F600 Z0.6
G0 F1600 X232.039 Y140.867 Z0.6
;TYPE:SKIRT
G1 F600 Z0.2
G1 F4200 E0
G1 F1200 X232.528 Y140.993 E0.01596
G1 X232.991 Y141.195 E0.03192
G1 X233.416 Y141.467 E0.04786
G1 X233.793 Y141.802 E0.0638
G1 X234.113 Y142.193 E0.07976
G1 X234.367 Y142.629 E0.0957
G1 X234.548 Y143.1 E0.11165
G1 X234.654 Y143.594 E0.12761
G1 X234.689 Y144.24 E0.14805
G1 X234.69 Y155.303 E0.49761
G1 X234.681 Y156.03 E0.52059
G1 X234.635 Y156.533 E0.53654
G1 X234.51 Y157.022 E0.55249
G1 X234.309 Y157.486 E0.56847
G1 X234.038 Y157.911 E0.5844
G1 X233.703 Y158.289 E0.60036
G1 X233.313 Y158.609 E0.6163
G1 X232.877 Y158.864 E0.63226
G1 X232.407 Y159.047 E0.64819
G1 X231.913 Y159.153 E0.66416
G1 X231.259 Y159.189 E0.68485
G1 X169.166 Y159.19 E2.64681
G1 X168.468 Y159.181 E2.66887
G1 X167.965 Y159.134 E2.68483
G1 X167.476 Y159.009 E2.70078
G1 X167.013 Y158.808 E2.71673
G1 X166.587 Y158.537 E2.73268
G1 X166.21 Y158.202 E2.74862
G1 X165.89 Y157.812 E2.76456
G1 X165.635 Y157.376 E2.78052
G1 X165.453 Y156.905 E2.79647
G1 X165.347 Y156.412 E2.8124
G1 X165.311 Y155.744 E2.83354
G1 X165.31 Y152.139 E2.94745
G1 X165.327 Y150.924 E2.98584
G1 X165.327 Y148.14 E3.07381
G1 X165.311 Y147.244 E3.10213
G1 X165.31 Y144.631 E3.18469
G1 X165.319 Y143.966 E3.2057
G1 X165.366 Y143.463 E3.22167
G1 X165.491 Y142.974 E3.23761
G1 X165.692 Y142.511 E3.25356
G1 X165.964 Y142.086 E3.26951
G1 X166.299 Y141.708 E3.28547
G1 X166.69 Y141.389 E3.30141
G1 X167.126 Y141.134 E3.31737
G1 X167.597 Y140.952 E3.33332
G1 X168.09 Y140.847 E3.34925
G1 X168.741 Y140.811 E3.36985
G1 X230.839 Y140.81 E5.33197
G1 X231.537 Y140.82 E5.35403
G1 X232.039 Y140.867 E5.36996
G0 F1600 X232.074 Y140.488
G1 F1200 X232.593 Y140.614 E5.38683
G1 X233.087 Y140.817 E5.40371
G1 X233.546 Y141.091 E5.4206
G1 X233.958 Y141.43 E5.43746
G1 X234.315 Y141.827 E5.45433
G1 X234.61 Y142.272 E5.4712
G1 X234.834 Y142.757 E5.48808
G1 X234.983 Y143.27 E5.50496
G1 X235.06 Y143.91 E5.52533
G1 X235.07 Y155.308 E5.88547
G1 X235.061 Y156.035 E5.90844
G1 X235.014 Y156.567 E5.92532
G1 X234.889 Y157.086 E5.94219
G1 X234.687 Y157.581 E5.95908
G1 X234.414 Y158.04 E5.97595
G1 X234.076 Y158.453 E5.99282
G1 X233.68 Y158.811 E6.00968
G1 X233.235 Y159.106 E6.02655
G1 X232.751 Y159.331 E6.04342
G1 X232.238 Y159.482 E6.06031
G1 X231.591 Y159.56 E6.08091
G1 X169.161 Y159.57 E8.05351
G1 X168.463 Y159.561 E8.07557
G1 X167.931 Y159.514 E8.09245
G1 X167.412 Y159.388 E8.10932
G1 X166.917 Y159.187 E8.1262
G1 X166.459 Y158.913 E8.14307
G1 X166.046 Y158.575 E8.15993
G1 X165.688 Y158.178 E8.17682
G1 X165.393 Y157.733 E8.19369
G1 X165.168 Y157.249 E8.21055
G1 X165.018 Y156.736 E8.22744
G1 X164.94 Y156.087 E8.2481
G1 X164.93 Y152.134 E8.373
G1 X164.947 Y150.919 E8.41139
G1 X164.947 Y148.14 E8.4992
G1 X164.931 Y147.251 E8.5273
G1 X164.93 Y144.626 E8.61024
G1 X164.939 Y143.961 E8.63125
G1 X164.986 Y143.429 E8.64813
G1 X165.112 Y142.91 E8.665
G1 X165.314 Y142.415 E8.6819
G1 X165.588 Y141.957 E8.69876
G1 X165.927 Y141.544 E8.71564
G1 X166.323 Y141.186 E8.73251
G1 X166.769 Y140.892 E8.74939
G1 X167.253 Y140.667 E8.76625
G1 X167.766 Y140.517 E8.78314
G1 X168.409 Y140.44 E8.8036
G1 X230.844 Y140.43 E10.77637
G1 X231.542 Y140.44 E10.79843
G1 X232.074 Y140.488 E10.81531
G0 F1600 X232.107 Y140.108
G1 F1200 X232.655 Y140.235 E10.83308
G1 X233.178 Y140.439 E10.85082
G1 X233.668 Y140.714 E10.86857
G1 X234.113 Y141.056 E10.88631
G1 X234.506 Y141.458 E10.90407
G1 X234.838 Y141.912 E10.92184
G1 X235.101 Y142.408 E10.93958
G1 X235.292 Y142.936 E10.95732
G1 X235.406 Y143.486 E10.97507
G1 X235.448 Y144.219 E10.99827
G1 X235.45 Y155.313 E11.34881
G1 X235.441 Y156.04 E11.37178
G1 X235.394 Y156.6 E11.38954
G1 X235.268 Y157.147 E11.40727
G1 X235.066 Y157.671 E11.42502
G1 X234.791 Y158.161 E11.44277
G1 X234.45 Y158.608 E11.46054
G1 X234.049 Y159.001 E11.47828
G1 X233.596 Y159.333 E11.49602
G1 X233.1 Y159.598 E11.51379
G1 X232.572 Y159.79 E11.53154
G1 X232.023 Y159.905 E11.54927
G1 X231.281 Y159.948 E11.57275
G1 X169.156 Y159.95 E13.53572
G1 X168.458 Y159.941 E13.55778
G1 X167.898 Y159.894 E13.57554
G1 X167.351 Y159.767 E13.59328
G1 X166.827 Y159.565 E13.61102
G1 X166.337 Y159.29 E13.62878
G1 X165.891 Y158.949 E13.64652
G1 X165.498 Y158.547 E13.66428
G1 X165.165 Y158.094 E13.68205
G1 X164.901 Y157.599 E13.69977
G1 X164.709 Y157.07 E13.71755
G1 X164.595 Y156.521 E13.73527
G1 X164.551 Y155.765 E13.7592
G1 X164.55 Y152.129 E13.87409
G1 X164.567 Y150.914 E13.91248
G1 X164.567 Y148.14 E14.00013
G1 X164.551 Y147.257 E14.02803
G1 X164.55 Y144.621 E14.11132
G1 X164.559 Y143.956 E14.13234
G1 X164.607 Y143.396 E14.1501
G1 X164.733 Y142.848 E14.16786
G1 X164.936 Y142.325 E14.18559
G1 X165.211 Y141.835 E14.20335
G1 X165.553 Y141.389 E14.2211
G1 X165.955 Y140.996 E14.23887
G1 X166.408 Y140.664 E14.25661
G1 X166.904 Y140.4 E14.27437
G1 X167.432 Y140.209 E14.29211
G1 X167.982 Y140.094 E14.30986
G1 X168.719 Y140.052 E14.33319
G1 X230.85 Y140.05 E16.29635
G1 X231.548 Y140.06 E16.31841
G1 X232.107 Y140.108 E16.33613
G1 F4200 E8.33613
;MESH:ktCAR5.stl
G0 F1600 X231.106 Y144.394
G0 X230.93 Y144.57
;TYPE:WALL-INNER
G1 F4200 E16.33613
G1 F1200 X230.93 Y155.43 E16.67928
G1 X169.07 Y155.43 E18.63388
G1 X169.07 Y152.07 E18.74004
G1 X170.43 Y152.07 E18.78302
G1 X170.43 Y154.82 E18.86991
G1 X184.57 Y154.82 E19.31669
G1 X184.57 Y152.07 E19.40358
G1 X185.43 Y152.07 E19.43076
G1 X185.43 Y154.82 E19.51765
G1 X206.57 Y154.82 E20.18561
G1 X206.57 Y144.57 E20.50948
G1 X208.43 Y144.57 E20.56825
G1 X208.43 Y154.82 E20.89212
G1 X229.57 Y154.82 E21.56009
G1 X229.57 Y144.57 E21.88396
G1 X230.93 Y144.57 E21.92693
G0 F1600 X229.408 Y144.522
G0 X185.592 Y144.522
G0 X185.43 Y144.57
G1 F1200 X185.43 Y146.93 E22.0015
G1 X184.57 Y146.93 E22.02867
G1 X184.57 Y144.57 E22.10324
G1 X185.43 Y144.57 E22.13042
G0 F1600 X184.408 Y144.522
G0 X170.592 Y144.522
G0 X170.43 Y144.57
G1 F1200 X170.43 Y146.93 E22.20498
G1 X169.07 Y146.93 E22.24796
G1 X169.07 Y144.57 E22.32253
G1 X170.43 Y144.57 E22.3655
G0 F1600 X206.408 Y144.522
G0 X208.52 Y154.45
G0 X208.8 Y154.45
;TYPE:WALL-OUTER
G1 F1200 X229.2 Y154.45 E23.01008
G1 X229.2 Y144.55 E23.32289
G1 X208.8 Y144.55 E23.96747
G1 X208.8 Y154.45 E24.28028
G0 F1600 X209 Y154.45
G0 X209 Y154.868
G0 X170.592 Y154.658
G0 X170.8 Y154.45
G1 F1200 X184.2 Y154.45 E24.70369
G1 X184.2 Y151.7 E24.79058
G1 X185.8 Y151.7 E24.84113
G1 X185.8 Y154.45 E24.92803
G1 X206.2 Y154.45 E25.57261
G1 X206.2 Y144.55 E25.88542
G1 X185.8 Y144.55 E26.53
G1 X185.8 Y147.3 E26.61689
G1 X184.2 Y147.3 E26.66745
G1 X184.2 Y144.55 E26.75434
G1 X170.8 Y144.55 E27.17774
G1 X170.8 Y147.3 E27.26463
G1 X168.7 Y147.3 E27.33099
G1 X168.7 Y144.2 E27.42894
G1 X170.8 Y144.2 E27.49529
G1 X184.2 Y144.2 E27.88527
G1 X185.8 Y144.2 E27.93582
G1 X206.2 Y144.2 E28.52952
G1 X208.8 Y144.2 E28.61167
G1 X229.2 Y144.2 E29.20536
G1 X231.3 Y144.2 E29.27172
G1 X231.3 Y155.8 E29.63824
G1 X168.7 Y155.8 E31.61622
G1 X168.7 Y151.7 E31.74577
G1 X170.8 Y151.7 E31.81212
G1 X170.8 Y154.45 E31.89902
G0 F1600 X171 Y154.45
G0 X171 Y154.868
G0 X170.06 Y155.06
;TYPE:SKIN
G1 F1200 X169.44 Y155.06 E31.91861
G1 X169.44 Y152.44 E32.00139
G1 X170.06 Y152.44 E32.02098
G1 X170.06 Y155.06 E32.10377
G0 F1600 X184.94 Y155.06
G1 F1200 X184.94 Y152.44 E32.18655
G1 X185.06 Y152.44 E32.19034
G1 X185.06 Y155.06 E32.27313
G1 X184.94 Y155.06 E32.27692
G0 F1600 X206.94 Y155.06
G1 F1200 X206.94 Y144.94 E32.59668
G1 X208.06 Y144.94 E32.63207
G1 X208.06 Y155.06 E32.95183
G1 X206.94 Y155.06 E32.98722
G0 F1600 X229.94 Y155.06
G1 F1200 X229.94 Y144.94 E33.30698
G1 X230.56 Y144.94 E33.32658
G1 X230.56 Y155.06 E33.64634
G1 X229.94 Y155.06 E33.66593
G0 F1600 X230.11 Y145.2
G1 F1200 X230.388 Y145.478 E33.67835
G0 F1600 X230.11 Y145.738
G1 F1200 X230.388 Y146.016 E33.69077
G0 F1600 X230.11 Y146.275
G1 F1200 X230.388 Y146.553 E33.7032
G0 F1600 X230.11 Y146.813
G1 F1200 X230.388 Y147.09 E33.7156
G0 F1600 X230.11 Y147.35
G1 F1200 X230.388 Y147.628 E33.72802
G0 F1600 X230.11 Y147.887
G1 F1200 X230.388 Y148.165 E33.74044
G0 F1600 X230.11 Y148.425
G1 F1200 X230.388 Y148.703 E33.75286
G0 F1600 X230.11 Y148.962
G1 F1200 X230.388 Y149.24 E33.76529
G0 F1600 X230.11 Y149.5
G1 F1200 X230.388 Y149.777 E33.77769
G0 F1600 X230.11 Y150.037
G1 F1200 X230.388 Y150.315 E33.79011
G0 F1600 X230.11 Y150.574
G1 F1200 X230.388 Y150.852 E33.80253
G0 F1600 X230.11 Y151.112
G1 F1200 X230.388 Y151.39 E33.81495
G0 F1600 X230.11 Y151.649
G1 F1200 X230.388 Y151.927 E33.82738
G0 F1600 X230.11 Y152.187
G1 F1200 X230.388 Y152.464 E33.83978
G0 F1600 X230.11 Y152.724
G1 F1200 X230.388 Y153.002 E33.8522
G0 F1600 X230.11 Y153.261
G1 F1200 X230.388 Y153.539 E33.86462
G0 F1600 X230.11 Y153.799
G1 F1200 X230.388 Y154.077 E33.87704
G0 F1600 X230.11 Y154.336
G1 F1200 X230.388 Y154.614 E33.88947
G0 F1600 X207.887 Y154.685
G1 F1200 X207.11 Y153.907 E33.92421
G0 F1600 X207.11 Y153.37
G1 F1200 X207.887 Y154.147 E33.95893
G0 F1600 X207.887 Y153.61
G1 F1200 X207.11 Y152.832 E33.99367
G0 F1600 X207.11 Y152.295
G1 F1200 X207.887 Y153.073 E34.02841
G0 F1600 X207.887 Y152.535
G1 F1200 X207.11 Y151.757 E34.06316
G0 F1600 X207.11 Y151.22
G1 F1200 X207.887 Y151.998 E34.0979
G0 F1600 X207.887 Y151.46
G1 F1200 X207.11 Y150.683 E34.13262
G0 F1600 X207.11 Y150.145
G1 F1200 X207.887 Y150.923 E34.16736
G0 F1600 X207.887 Y150.386
G1 F1200 X207.11 Y149.608 E34.2021
G0 F1600 X207.11 Y149.07
G1 F1200 X207.887 Y149.848 E34.23685
G0 F1600 X207.887 Y149.311
G1 F1200 X207.11 Y148.533 E34.27159
G0 F1600 X207.11 Y147.996
G1 F1200 X207.887 Y148.773 E34.30631
G0 F1600 X207.887 Y148.236
G1 F1200 X207.11 Y147.458 E34.34105
G0 F1600 X207.11 Y146.921
G1 F1200 X207.887 Y147.699 E34.3758
G0 F1600 X207.887 Y147.161
G1 F1200 X207.11 Y146.383 E34.41054
G0 F1600 X207.11 Y145.846
G1 F1200 X207.887 Y146.624 E34.44528
G0 F1600 X207.887 Y146.086
G1 F1200 X207.11 Y145.309 E34.48
G0 F1600 X207.449 Y145.111
G1 F1200 X207.887 Y145.549 E34.49957
G0 F1600 X207.11 Y154.444
G1 F1200 X207.554 Y154.888 E34.51941
G0 F1600 X169.888 Y154.84
G1 F1200 X169.61 Y154.562 E34.53184
G0 F1600 X169.888 Y154.303
G1 F1200 X169.61 Y154.025 E34.54426
G0 F1600 X169.888 Y153.766
G1 F1200 X169.61 Y153.488 E34.55668
G0 F1600 X169.888 Y153.228
G1 F1200 X169.61 Y152.95 E34.5691
G0 F1600 X169.888 Y152.691
G1 F1200 X169.808 Y152.611 E34.57268
G0 F1600 X170.307 Y154.991
;TYPE:SKIN
G1 F1200 X170.574 Y155.258 E34.57864
G0 F1600 X170.576 Y154.991
G1 F1200 X170.843 Y155.258 E34.58461
G0 F1600 X170.844 Y154.991
G1 F1200 X171.112 Y155.258 E34.59059
G0 F1600 X171.113 Y154.991
G1 F1200 X171.38 Y155.258 E34.59655
G0 F1600 X171.382 Y154.991
G1 F1200 X171.649 Y155.258 E34.60252
G0 F1600 X171.65 Y154.991
G1 F1200 X171.918 Y155.258 E34.60849
G0 F1600 X171.919 Y154.991
G1 F1200 X172.186 Y155.258 E34.61446
G0 F1600 X172.188 Y154.991
G1 F1200 X172.455 Y155.258 E34.62042
G0 F1600 X172.456 Y154.991
G1 F1200 X172.724 Y155.258 E34.6264
G0 F1600 X172.725 Y154.991
G1 F1200 X172.992 Y155.258 E34.63237
G0 F1600 X172.994 Y154.991
G1 F1200 X173.261 Y155.258 E34.63833
G0 F1600 X173.263 Y154.991
G1 F1200 X173.53 Y155.258 E34.6443
G0 F1600 X173.531 Y154.991
G1 F1200 X173.799 Y155.258 E34.65027
G0 F1600 X173.8 Y154.991
G1 F1200 X174.067 Y155.258 E34.65624
G0 F1600 X174.069 Y154.991
G1 F1200 X174.336 Y155.258 E34.6622
G0 F1600 X174.337 Y154.991
G1 F1200 X174.605 Y155.258 E34.66818
G0 F1600 X174.606 Y154.991
G1 F1200 X174.873 Y155.258 E34.67415
G0 F1600 X174.875 Y154.991
G1 F1200 X175.142 Y155.258 E34.68011
G0 F1600 X175.143 Y154.991
G1 F1200 X175.411 Y155.258 E34.68609
G0 F1600 X175.412 Y154.991
G1 F1200 X175.679 Y155.258 E34.69205
G0 F1600 X175.681 Y154.991
G1 F1200 X175.948 Y155.258 E34.69802
G0 F1600 X175.95 Y154.991
G1 F1200 X176.217 Y155.258 E34.70399
G0 F1600 X176.218 Y154.991
G1 F1200 X176.486 Y155.258 E34.70996
G0 F1600 X176.487 Y154.991
G1 F1200 X176.754 Y155.258 E34.71593
G0 F1600 X176.756 Y154.991
G1 F1200 X177.023 Y155.258 E34.72189
G0 F1600 X177.024 Y154.991
G1 F1200 X177.292 Y155.258 E34.72787
G0 F1600 X177.293 Y154.991
G1 F1200 X177.56 Y155.258 E34.73384
G0 F1600 X177.562 Y154.991
G1 F1200 X177.829 Y155.258 E34.7398
G0 F1600 X177.83 Y154.991
G1 F1200 X178.098 Y155.258 E34.74578
G0 F1600 X178.099 Y154.991
G1 F1200 X178.366 Y155.258 E34.75174
G0 F1600 X178.368 Y154.991
G1 F1200 X178.635 Y155.258 E34.75771
G0 F1600 X178.637 Y154.991
G1 F1200 X178.904 Y155.258 E34.76367
G0 F1600 X178.905 Y154.991
G1 F1200 X179.173 Y155.258 E34.76965
G0 F1600 X179.174 Y154.991
G1 F1200 X179.441 Y155.258 E34.77562
G0 F1600 X179.443 Y154.991
G1 F1200 X179.71 Y155.258 E34.78158
G0 F1600 X179.711 Y154.991
G1 F1200 X179.979 Y155.258 E34.78756
G0 F1600 X179.98 Y154.991
G1 F1200 X180.247 Y155.258 E34.79352
G0 F1600 X180.249 Y154.991
G1 F1200 X180.516 Y155.258 E34.79949
G0 F1600 X180.517 Y154.991
G1 F1200 X180.785 Y155.258 E34.80547
G0 F1600 X180.786 Y154.991
G1 F1200 X181.053 Y155.258 E34.81143
G0 F1600 X181.055 Y154.991
G1 F1200 X181.322 Y155.258 E34.8174
G0 F1600 X181.324 Y154.991
G1 F1200 X181.591 Y155.258 E34.82336
G0 F1600 X181.592 Y154.991
G1 F1200 X181.86 Y155.258 E34.82934
G0 F1600 X181.861 Y154.991
G1 F1200 X182.128 Y155.258 E34.8353
G0 F1600 X182.13 Y154.991
G1 F1200 X182.397 Y155.258 E34.84127
G0 F1600 X182.398 Y154.991
G1 F1200 X182.666 Y155.258 E34.84725
G0 F1600 X182.667 Y154.991
G1 F1200 X182.934 Y155.258 E34.85321
G0 F1600 X182.936 Y154.991
G1 F1200 X183.203 Y155.258 E34.85918
G0 F1600 X183.205 Y154.991
G1 F1200 X183.472 Y155.258 E34.86514
G0 F1600 X183.473 Y154.991
G1 F1200 X183.74 Y155.258 E34.87111
G0 F1600 X183.742 Y154.991
G1 F1200 X184.009 Y155.258 E34.87707
G0 F1600 X184.011 Y154.991
G1 F1200 X184.278 Y155.258 E34.88304
G0 F1600 X184.279 Y154.991
G1 F1200 X184.547 Y155.258 E34.88902
G0 F1600 X184.753 Y155.196
G1 F1200 X184.548 Y154.991 E34.8936
G0 F1600 X185.245 Y155.15
G1 F1200 X185.353 Y155.258 E34.89601
G0 F1600 X185.354 Y154.991
G1 F1200 X185.621 Y155.258 E34.90197
G0 F1600 X185.623 Y154.991
G1 F1200 X185.89 Y155.258 E34.90794
G0 F1600 X185.892 Y154.991
G1 F1200 X186.159 Y155.258 E34.9139
G0 F1600 X186.16 Y154.991
G1 F1200 X186.427 Y155.258 E34.91987
G0 F1600 X186.429 Y154.991
G1 F1200 X186.696 Y155.258 E34.92584
G0 F1600 X186.698 Y154.991
G1 F1200 X186.965 Y155.258 E34.9318
G0 F1600 X186.966 Y154.991
G1 F1200 X187.234 Y155.258 E34.93778
G0 F1600 X187.235 Y154.991
G1 F1200 X187.502 Y155.258 E34.94374
G0 F1600 X187.504 Y154.991
G1 F1200 X187.771 Y155.258 E34.94971
G0 F1600 X187.772 Y154.991
G1 F1200 X188.04 Y155.258 E34.95569
G0 F1600 X188.041 Y154.991
G1 F1200 X188.308 Y155.258 E34.96165
G0 F1600 X188.31 Y154.991
G1 F1200 X188.577 Y155.258 E34.96762
G0 F1600 X188.579 Y154.991
G1 F1200 X188.846 Y155.258 E34.97358
G0 F1600 X188.847 Y154.991
G1 F1200 X189.115 Y155.258 E34.97956
G0 F1600 X189.116 Y154.991
G1 F1200 X189.383 Y155.258 E34.98552
G0 F1600 X189.385 Y154.991
G1 F1200 X189.652 Y155.258 E34.99149
G0 F1600 X189.653 Y154.991
G1 F1200 X189.921 Y155.258 E34.99747
G0 F1600 X189.922 Y154.991
G1 F1200 X190.189 Y155.258 E35.00343
G0 F1600 X190.191 Y154.991
G1 F1200 X190.458 Y155.258 E35.0094
G0 F1600 X190.459 Y154.991
G1 F1200 X190.727 Y155.258 E35.01537
G0 F1600 X190.728 Y154.991
G1 F1200 X190.995 Y155.258 E35.02134
G0 F1600 X190.997 Y154.991
G1 F1200 X191.264 Y155.258 E35.0273
G0 F1600 X191.266 Y154.991
G1 F1200 X191.533 Y155.258 E35.03327
G0 F1600 X191.534 Y154.991
G1 F1200 X191.802 Y155.258 E35.03925
G0 F1600 X191.803 Y154.991
G1 F1200 X192.07 Y155.258 E35.04521
G0 F1600 X192.072 Y154.991
G1 F1200 X192.339 Y155.258 E35.05118
G0 F1600 X192.34 Y154.991
G1 F1200 X192.608 Y155.258 E35.05715
G0 F1600 X192.609 Y154.991
G1 F1200 X192.876 Y155.258 E35.06312
G0 F1600 X192.878 Y154.991
G1 F1200 X193.145 Y155.258 E35.06909
G0 F1600 X193.146 Y154.991
G1 F1200 X193.414 Y155.258 E35.07506
