;FLAVOR:Marlin
;TIME:4054
;Filament used: 2.85315m, 0m
;Layer height: 0.2
;MINX:162.782
;MINY:140.05
;MINZ:0.2
;MAXX:233.682
;MAXY:159.95
;MAXZ:62
;Generated with Cura_SteamEngine 4.5.0
T0
M140 S50
M105
M190 S50
M104 S205
M105
M109 S205
M82 ;absolute extrusion mode
G28 ;Home
G1 Z15.0 F6000 ;Move the platform down 15mm
;Prime the extruder
G92 E0
G1 F200 E3
G92 E0
G92 E0
G92 E0
G1 F4200 E-8
;LAYER_COUNT:310
;LAYER:0
M107
G1 F600 Z0.6
G0 F1600 X163.784 Y141.421 Z0.6
;TYPE:SKIRT
G1 F600 Z0.2
G1 F4200 E0
G1 F1200 X164.186 Y141.028 E0.01776
G1 X164.639 Y140.696 E0.03551
G1 X165.134 Y140.431 E0.05325
G1 X165.663 Y140.24 E0.07102
G1 X166.213 Y140.125 E0.08878
G1 X167.476 Y140.069 E0.12872
G1 X169.819 Y140.05 E0.20276
G1 X229.082 Y140.05 E2.0753
G1 X229.78 Y140.06 E2.09735
G1 X230.339 Y140.108 E2.11508
G1 X230.887 Y140.235 E2.13286
G1 X231.41 Y140.439 E2.15059
G1 X231.9 Y140.714 E2.16835
G1 X232.345 Y141.056 E2.18608
G1 X232.738 Y141.458 E2.20385
G1 X233.07 Y141.912 E2.22162
G1 X233.333 Y142.408 E2.23936
G1 X233.524 Y142.936 E2.2571
G1 X233.638 Y143.486 E2.27484
G1 X233.68 Y144.2 E2.29744
G1 X233.682 Y155.293 E2.64795
G1 X233.673 Y156.02 E2.67092
G1 X233.626 Y156.58 E2.68868
G1 X233.5 Y157.127 E2.70642
G1 X233.298 Y157.651 E2.72416
G1 X233.023 Y158.141 E2.74192
G1 X232.682 Y158.588 E2.75968
G1 X232.281 Y158.981 E2.77742
G1 X231.828 Y159.313 E2.79517
G1 X231.332 Y159.578 E2.81294
G1 X230.804 Y159.77 E2.83069
G1 X230.255 Y159.885 E2.84841
G1 X229.507 Y159.928 E2.87208
G1 X167.403 Y159.95 E4.83439
G1 X166.699 Y159.941 E4.85664
G1 X166.139 Y159.893 E4.8744
G1 X165.592 Y159.766 E4.89214
G1 X165.068 Y159.563 E4.9099
G1 X164.579 Y159.288 E4.92762
G1 X164.133 Y158.946 E4.94538
G1 X163.74 Y158.544 E4.96315
G1 X163.408 Y158.091 E4.98089
G1 X163.144 Y157.595 E4.99865
G1 X162.953 Y157.067 E5.01639
G1 X162.812 Y156.245 E5.04274
G1 X162.782 Y155.649 E5.0616
G1 X162.782 Y144.67 E5.4085
G1 X162.791 Y143.988 E5.43005
G1 X162.839 Y143.428 E5.44781
G1 X162.965 Y142.881 E5.46555
G1 X163.168 Y142.357 E5.4833
G1 X163.443 Y141.867 E5.50106
G1 X163.784 Y141.421 E5.5188
G0 F1600 X164.158 Y141.576
G1 F1200 X164.554 Y141.218 E5.53566
G1 X165 Y140.923 E5.55256
G1 X165.484 Y140.699 E5.56941
G1 X165.997 Y140.548 E5.58631
G1 X166.647 Y140.471 E5.60699
G1 X167.486 Y140.449 E5.63351
G1 X169.822 Y140.43 E5.70732
G1 X229.076 Y140.43 E7.57958
G1 X229.774 Y140.44 E7.60164
G1 X230.306 Y140.488 E7.61851
G1 X230.825 Y140.614 E7.63539
G1 X231.319 Y140.817 E7.65227
G1 X231.778 Y141.091 E7.66916
G1 X232.19 Y141.43 E7.68601
G1 X232.547 Y141.827 E7.70288
G1 X232.842 Y142.272 E7.71975
G1 X233.066 Y142.757 E7.73663
G1 X233.215 Y143.27 E7.75351
G1 X233.291 Y143.905 E7.77372
G1 X233.302 Y155.288 E8.13339
G1 X233.293 Y156.015 E8.15636
G1 X233.246 Y156.547 E8.17324
G1 X233.121 Y157.066 E8.19011
G1 X232.919 Y157.561 E8.207
G1 X232.646 Y158.02 E8.22387
G1 X232.308 Y158.433 E8.24074
G1 X231.912 Y158.791 E8.2576
G1 X231.467 Y159.086 E8.27447
G1 X230.983 Y159.311 E8.29134
G1 X230.47 Y159.462 E8.30824
G1 X229.822 Y159.54 E8.32886
G1 X167.403 Y159.57 E10.30112
G1 X166.704 Y159.561 E10.32321
G1 X166.172 Y159.513 E10.34009
G1 X165.654 Y159.387 E10.35693
G1 X165.159 Y159.185 E10.37382
G1 X164.701 Y158.911 E10.39069
G1 X164.288 Y158.572 E10.40757
G1 X163.93 Y158.176 E10.42444
G1 X163.636 Y157.73 E10.44132
G1 X163.412 Y157.245 E10.4582
G1 X163.262 Y156.733 E10.47505
G1 X163.191 Y156.22 E10.49142
G1 X163.162 Y155.649 E10.50948
G1 X163.162 Y144.675 E10.85623
G1 X163.171 Y143.993 E10.87778
G1 X163.218 Y143.461 E10.89466
G1 X163.344 Y142.942 E10.91153
G1 X163.546 Y142.447 E10.92842
G1 X163.819 Y141.989 E10.94527
G1 X164.158 Y141.576 E10.96215
G0 F1600 X164.195 Y142.118
G1 F1200 X164.53 Y141.74 E10.97811
G1 X164.921 Y141.42 E10.99408
G1 X165.357 Y141.166 E11.01002
G1 X165.828 Y140.984 E11.02598
G1 X166.321 Y140.878 E11.04191
G1 X167.496 Y140.829 E11.07907
G1 X169.825 Y140.81 E11.15266
G1 X229.071 Y140.81 E13.02466
G1 X229.769 Y140.82 E13.04672
G1 X230.271 Y140.867 E13.06265
G1 X230.76 Y140.993 E13.07861
G1 X231.223 Y141.195 E13.09457
G1 X231.648 Y141.467 E13.11051
G1 X232.025 Y141.802 E13.12645
G1 X232.345 Y142.193 E13.14241
G1 X232.599 Y142.629 E13.15836
G1 X232.78 Y143.1 E13.1743
G1 X232.886 Y143.594 E13.19026
G1 X232.921 Y144.222 E13.21014
G1 X232.922 Y155.283 E13.55963
G1 X232.913 Y156.01 E13.58261
G1 X232.867 Y156.513 E13.59857
G1 X232.742 Y157.002 E13.61451
G1 X232.541 Y157.466 E13.63049
G1 X232.27 Y157.891 E13.64642
G1 X231.935 Y158.269 E13.66238
G1 X231.545 Y158.589 E13.67832
G1 X231.109 Y158.844 E13.69428
G1 X230.639 Y159.027 E13.71021
G1 X230.145 Y159.133 E13.72618
G1 X229.486 Y159.169 E13.74703
G1 X167.403 Y159.19 E15.70868
G1 X166.71 Y159.181 E15.73057
G1 X166.207 Y159.134 E15.74654
G1 X165.718 Y159.008 E15.76249
G1 X165.255 Y158.807 E15.77844
G1 X164.83 Y158.535 E15.79438
G1 X164.453 Y158.2 E15.81032
G1 X164.133 Y157.809 E15.82628
G1 X163.879 Y157.373 E15.84223
G1 X163.697 Y156.902 E15.85818
G1 X163.571 Y156.196 E15.88084
G1 X163.542 Y155.649 E15.89815
G1 X163.542 Y144.68 E16.24474
G1 X163.551 Y143.998 E16.26629
G1 X163.598 Y143.495 E16.28225
G1 X163.723 Y143.006 E16.2982
G1 X163.924 Y142.543 E16.31415
G1 X164.195 Y142.118 E16.33008
G1 F4200 E8.33008
;MESH:ktCAR5.stl
G0 F1600 X167.316 Y144.604
G0 X167.372 Y155.36
G0 X167.302 Y155.43
;TYPE:WALL-INNER
G1 F4200 E16.33008
G1 F1200 X167.302 Y155.241 E16.33605
G1 X167.302 Y144.59 E16.67259
G1 X169.612 Y144.57 E16.74558
G1 X229.162 Y144.57 E18.62719
G1 X229.162 Y155.41 E18.9697
G1 X167.491 Y155.43 E20.91833
G1 X167.302 Y155.43 E20.92219
G0 F1600 X167.122 Y155.8
;TYPE:WALL-OUTER
G1 F1200 X166.932 Y155.8 E20.9282
G1 X166.932 Y155.61 E20.93208
G1 X166.932 Y144.223 E21.29188
G1 X169.609 Y144.2 E21.37647
G1 X229.532 Y144.2 E23.26986
G1 X229.532 Y155.78 E23.63576
G1 X167.122 Y155.8 E25.60773
G0 F1600 X166.932 Y155.8
G0 X166.932 Y155.79
G0 X167.35 Y155.381
G0 X167.672 Y155.06
;TYPE:SKIN
G1 F1200 X167.672 Y144.956 E25.92699
G1 X169.616 Y144.94 E25.98842
G1 X228.792 Y144.94 E27.85821
G1 X228.792 Y155.04 E28.17734
G1 X167.672 Y155.06 E30.10856
G0 F1600 X168.323 Y154.888
G1 F1200 X167.841 Y154.406 E30.1301
G0 F1600 X167.841 Y153.869
G1 F1200 X168.86 Y154.888 E30.17563
G0 F1600 X169.398 Y154.888
G1 F1200 X167.841 Y153.331 E30.2452
G0 F1600 X167.841 Y152.794
G1 F1200 X169.935 Y154.888 E30.33878
G0 F1600 X170.472 Y154.887
G1 F1200 X167.841 Y152.257 E30.45632
G0 F1600 X167.841 Y151.719
G1 F1200 X171.009 Y154.887 E30.59788
G0 F1600 X171.546 Y154.887
G1 F1200 X167.841 Y151.182 E30.76344
G0 F1600 X167.841 Y150.644
G1 F1200 X172.084 Y154.887 E30.95304
G0 F1600 X172.621 Y154.886
G1 F1200 X167.841 Y150.107 E31.16661
G0 F1600 X167.841 Y149.57
G1 F1200 X173.158 Y154.886 E31.40418
G0 F1600 X173.695 Y154.886
G1 F1200 X167.841 Y149.032 E31.66577
G0 F1600 X167.841 Y148.495
G1 F1200 X174.233 Y154.886 E31.95137
G0 F1600 X174.769 Y154.886
G1 F1200 X167.841 Y147.957 E32.26097
G0 F1600 X167.841 Y147.42
G1 F1200 X175.307 Y154.886 E32.59459
G0 F1600 X175.844 Y154.886
G1 F1200 X167.841 Y146.883 E32.9522
G0 F1600 X167.841 Y146.345
G1 F1200 X176.382 Y154.886 E33.33386
G0 F1600 X176.918 Y154.885
G1 F1200 X167.841 Y145.808 E33.73947
G0 F1600 X167.841 Y145.27
G1 F1200 X177.456 Y154.885 E34.16911
G0 F1600 X177.993 Y154.885
G1 F1200 X168.229 Y145.121 E34.60542
G0 F1600 X168.763 Y145.118
G1 F1200 X178.531 Y154.885 E35.04188
G0 F1600 X179.067 Y154.884
G1 F1200 X169.296 Y145.113 E35.4785
G0 F1600 X169.831 Y145.111
G1 F1200 X179.605 Y154.884 E35.91523
G0 F1600 X180.142 Y154.884
G1 F1200 X170.368 Y145.111 E36.35196
G0 F1600 X170.906 Y145.111
G1 F1200 X180.679 Y154.884 E36.78867
G0 F1600 X181.216 Y154.883
G1 F1200 X171.443 Y145.111 E37.22535
G0 F1600 X171.981 Y145.111
G1 F1200 X181.754 Y154.883 E37.66204
G0 F1600 X182.291 Y154.883
G1 F1200 X172.518 Y145.111 E38.09872
G0 F1600 X173.055 Y145.111
G1 F1200 X182.828 Y154.883 E38.53541
G0 F1600 X183.365 Y154.883
G1 F1200 X173.593 Y145.111 E38.97207
G0 F1600 X174.13 Y145.111
G1 F1200 X183.902 Y154.883 E39.40873
G0 F1600 X184.44 Y154.883
G1 F1200 X174.668 Y145.111 E39.84539
G0 F1600 X175.205 Y145.111
G1 F1200 X184.977 Y154.883 E40.28206
G0 F1600 X185.514 Y154.882
G1 F1200 X175.742 Y145.111 E40.7187
G0 F1600 X176.28 Y145.111
G1 F1200 X186.051 Y154.882 E41.15531
G0 F1600 X186.589 Y154.882
G1 F1200 X176.817 Y145.111 E41.59195
G0 F1600 X177.355 Y145.111
G1 F1200 X187.126 Y154.882 E42.02857
G0 F1600 X187.663 Y154.881
G1 F1200 X177.892 Y145.111 E42.46517
G0 F1600 X178.429 Y145.111
G1 F1200 X188.2 Y154.881 E42.90176
G0 F1600 X188.738 Y154.881
G1 F1200 X178.967 Y145.111 E43.33836
G0 F1600 X179.504 Y145.111
G1 F1200 X189.275 Y154.881 E43.77496
G0 F1600 X189.812 Y154.881
G1 F1200 X180.042 Y145.111 E44.21153
G0 F1600 X180.579 Y145.111
G1 F1200 X190.349 Y154.881 E44.6481
G0 F1600 X190.887 Y154.881
G1 F1200 X181.116 Y145.111 E45.0847
G0 F1600 X181.654 Y145.111
G1 F1200 X191.424 Y154.881 E45.52127
G0 F1600 X191.961 Y154.88
G1 F1200 X182.191 Y145.111 E45.95782
G0 F1600 X182.729 Y145.111
G1 F1200 X192.498 Y154.88 E46.39435
G0 F1600 X193.035 Y154.88
G1 F1200 X183.266 Y145.111 E46.83088
G0 F1600 X183.803 Y145.111
G1 F1200 X193.573 Y154.88 E47.26743
G0 F1600 X194.11 Y154.879
G1 F1200 X184.341 Y145.111 E47.70394
G0 F1600 X184.878 Y145.111
G1 F1200 X194.647 Y154.879 E48.14044
G0 F1600 X195.184 Y154.879
G1 F1200 X185.416 Y145.111 E48.57693
G0 F1600 X185.953 Y145.111
G1 F1200 X195.722 Y154.879 E49.01343
G0 F1600 X196.258 Y154.879
G1 F1200 X186.49 Y145.111 E49.44992
G0 F1600 X187.028 Y145.111
G1 F1200 X196.796 Y154.879 E49.8864
G0 F1600 X197.333 Y154.879
G1 F1200 X187.565 Y145.111 E50.32288
G0 F1600 X188.103 Y145.111
G1 F1200 X197.871 Y154.879 E50.75937
G0 F1600 X198.407 Y154.878
G1 F1200 X188.64 Y145.111 E51.19581
G0 F1600 X189.177 Y145.111
G1 F1200 X198.945 Y154.878 E51.63227
G0 F1600 X199.482 Y154.878
G1 F1200 X189.715 Y145.111 E52.06871
G0 F1600 X190.252 Y145.111
G1 F1200 X200.02 Y154.878 E52.50517
G0 F1600 X200.556 Y154.877
G1 F1200 X190.79 Y145.111 E52.94156
G0 F1600 X191.327 Y145.111
G1 F1200 X201.094 Y154.877 E53.37798
G0 F1600 X201.631 Y154.877
G1 F1200 X191.864 Y145.111 E53.8144
G0 F1600 X192.402 Y145.111
G1 F1200 X202.168 Y154.877 E54.25079
G0 F1600 X202.705 Y154.876
G1 F1200 X192.939 Y145.111 E54.68717
G0 F1600 X193.477 Y145.111
G1 F1200 X203.242 Y154.876 E55.12352
G0 F1600 X203.78 Y154.876
G1 F1200 X194.014 Y145.111 E55.55989
G0 F1600 X194.551 Y145.111
G1 F1200 X204.317 Y154.876 E55.99626
G0 F1600 X204.854 Y154.876
G1 F1200 X195.089 Y145.111 E56.43261
G0 F1600 X195.626 Y145.111
G1 F1200 X205.391 Y154.876 E56.86896
G0 F1600 X205.929 Y154.876
G1 F1200 X196.164 Y145.111 E57.30531
G0 F1600 X196.701 Y145.111
G1 F1200 X206.466 Y154.876 E57.74166
G0 F1600 X207.003 Y154.875
G1 F1200 X197.238 Y145.111 E58.17799
G0 F1600 X197.776 Y145.111
G1 F1200 X207.54 Y154.875 E58.61429
G0 F1600 X208.078 Y154.875
G1 F1200 X198.313 Y145.111 E59.05062
G0 F1600 X198.851 Y145.111
G1 F1200 X208.615 Y154.875 E59.48692
G0 F1600 X209.152 Y154.874
G1 F1200 X199.388 Y145.111 E59.92321
G0 F1600 X199.925 Y145.111
G1 F1200 X209.689 Y154.874 E60.35949
G0 F1600 X210.227 Y154.874
G1 F1200 X200.463 Y145.111 E60.79577
G0 F1600 X201 Y145.111
G1 F1200 X210.764 Y154.874 E61.23206
G0 F1600 X211.301 Y154.874
G1 F1200 X201.538 Y145.111 E61.66832
G0 F1600 X202.075 Y145.111
G1 F1200 X211.838 Y154.874 E62.10458
G0 F1600 X212.375 Y154.874
G1 F1200 X202.612 Y145.111 E62.54084
G0 F1600 X203.15 Y145.111
G1 F1200 X212.913 Y154.874 E62.9771
G0 F1600 X213.45 Y154.873
G1 F1200 X203.687 Y145.111 E63.41334
G0 F1600 X204.225 Y145.111
G1 F1200 X213.987 Y154.873 E63.84955
G0 F1600 X214.524 Y154.873
G1 F1200 X204.762 Y145.111 E64.28577
G0 F1600 X205.299 Y145.111
G1 F1200 X215.062 Y154.873 E64.72201
G0 F1600 X215.598 Y154.872
G1 F1200 X205.837 Y145.111 E65.15818
G0 F1600 X206.374 Y145.111
G1 F1200 X216.136 Y154.872 E65.59437
G0 F1600 X216.673 Y154.872
G1 F1200 X206.912 Y145.111 E66.03054
G0 F1600 X207.449 Y145.111
G1 F1200 X217.211 Y154.872 E66.46674
G0 F1600 X217.748 Y154.872
G1 F1200 X207.986 Y145.111 E66.90293
G0 F1600 X208.524 Y145.111
G1 F1200 X218.285 Y154.871 E67.33908
G0 F1600 X218.822 Y154.871
G1 F1200 X209.061 Y145.111 E67.77523
G0 F1600 X209.599 Y145.111
G1 F1200 X219.36 Y154.871 E68.21138
G0 F1600 X219.897 Y154.871
G1 F1200 X210.136 Y145.111 E68.64752
G0 F1600 X210.673 Y145.111
G1 F1200 X220.434 Y154.871 E69.08367
G0 F1600 X220.971 Y154.871
G1 F1200 X211.211 Y145.111 E69.5198
G0 F1600 X211.748 Y145.111
G1 F1200 X221.508 Y154.871 E69.95593
G0 F1600 X222.046 Y154.871
G1 F1200 X212.286 Y145.111 E70.39205
G0 F1600 X212.823 Y145.111
G1 F1200 X222.583 Y154.87 E70.82816
G0 F1600 X223.12 Y154.87
G1 F1200 X213.36 Y145.111 E71.26426
G0 F1600 X213.898 Y145.111
G1 F1200 X223.657 Y154.87 E71.70034
G0 F1600 X224.195 Y154.87
G1 F1200 X214.435 Y145.111 E72.13645
G0 F1600 X214.973 Y145.111
G1 F1200 X224.731 Y154.869 E72.57248
G0 F1600 X225.269 Y154.869
G1 F1200 X215.51 Y145.111 E73.00854
G0 F1600 X216.047 Y145.111
G1 F1200 X225.806 Y154.869 E73.4446
G0 F1600 X226.344 Y154.869
G1 F1200 X216.585 Y145.111 E73.88066
G0 F1600 X217.122 Y145.111
G1 F1200 X226.88 Y154.869 E74.3167
G0 F1600 X227.418 Y154.869
G1 F1200 X217.66 Y145.111 E74.75274
G0 F1600 X218.197 Y145.111
G1 F1200 X227.955 Y154.869 E75.18877
G0 F1600 X228.493 Y154.869
G1 F1200 X218.734 Y145.111 E75.62483
G0 F1600 X219.272 Y145.111
G1 F1200 X228.62 Y154.458 E76.04253
G0 F1600 X228.62 Y153.921
G1 F1200 X219.809 Y145.111 E76.43622
G0 F1600 X220.347 Y145.111
G1 F1200 X228.62 Y153.384 E76.8059
G0 F1600 X228.62 Y152.846
G1 F1200 X220.884 Y145.111 E77.15157
G0 F1600 X221.422 Y145.111
G1 F1200 X228.62 Y152.309 E77.47321
G0 F1600 X228.62 Y151.771
G1 F1200 X221.959 Y145.111 E77.77083
G0 F1600 X222.496 Y145.111
G1 F1200 X228.62 Y151.234 E78.04446
G0 F1600 X228.62 Y150.697
G1 F1200 X223.034 Y145.111 E78.29407
G0 F1600 X223.571 Y145.111
G1 F1200 X228.62 Y150.159 E78.51967
G0 F1600 X228.62 Y149.622
G1 F1200 X224.109 Y145.111 E78.72124
G0 F1600 X224.646 Y145.111
G1 F1200 X228.62 Y149.084 E78.8988
G0 F1600 X228.62 Y148.547
G1 F1200 X225.183 Y145.111 E79.05236
G0 F1600 X225.721 Y145.111
G1 F1200 X228.62 Y148.01 E79.1819
G0 F1600 X228.62 Y147.472
G1 F1200 X226.258 Y145.111 E79.28742
G0 F1600 X226.796 Y145.111
G1 F1200 X228.62 Y146.935 E79.36893
G0 F1600 X228.62 Y146.397
G1 F1200 X227.333 Y145.111 E79.42642
G0 F1600 X227.87 Y145.111
G1 F1200 X228.62 Y145.86 E79.45991
G0 F1600 X228.62 Y145.323
G1 F1200 X228.408 Y145.111 E79.46938
;MESH:NONMESH
G0 F600 X228.408 Y145.111 Z0.4
G0 F1600 X167.372 Y155.36
G0 X167.302 Y155.43
;TIME_ELAPSED:141.393702
;LAYER:1
M140 S50
M106 S255
;TYPE:WALL-INNER
;MESH:ktCAR5.stl
G1 F2400 X167.302 Y144.57 E79.81253
G1 X229.162 Y144.57 E81.76712
G1 X229.162 Y155.43 E82.11027
G1 X167.302 Y155.43 E84.06487
G0 F3200 X166.932 Y155.8
;TYPE:WALL-OUTER
G1 F1500 X166.932 Y144.2 E84.43139
G1 X229.532 Y144.2 E86.40937
G1 X229.532 Y155.8 E86.7759
G1 X166.932 Y155.8 E88.75388
G0 F3200 X166.932 Y155.6
G0 X167.35 Y155.382
G0 X167.672 Y155.06
;TYPE:SKIN
G1 F1500 X167.672 Y144.94 E89.07364
G1 X228.792 Y144.94 E91.00486
G1 X228.792 Y155.06 E91.32462
G1 X167.672 Y155.06 E93.25584
G0 F3200 X168.193 Y145.111
G1 F1500 X167.841 Y145.463 E93.27157
G0 F3200 X167.841 Y146
G1 F1500 X168.731 Y145.111 E93.31132
G0 F3200 X169.268 Y145.111
G1 F1500 X167.841 Y146.537 E93.37506
G0 F3200 X167.841 Y147.075
G1 F1500 X169.806 Y145.111 E93.46284
G0 F3200 X170.343 Y145.111
G1 F1500 X167.841 Y147.612 E93.57462
G0 F3200 X167.841 Y148.15
G1 F1500 X170.88 Y145.111 E93.71042
G0 F3200 X171.418 Y145.111
G1 F1500 X167.841 Y148.687 E93.87024
G0 F3200 X167.841 Y149.224
G1 F1500 X171.955 Y145.111 E94.05405
G0 F3200 X172.493 Y145.111
G1 F1500 X167.841 Y149.762 E94.2619
G0 F3200 X167.841 Y150.299
G1 F1500 X173.03 Y145.111 E94.49375
G0 F3200 X173.567 Y145.111
G1 F1500 X167.841 Y150.837 E94.74962
G0 F3200 X167.841 Y151.374
G1 F1500 X174.105 Y145.111 E95.0295
G0 F3200 X174.642 Y145.111
G1 F1500 X167.841 Y151.911 E95.33338
G0 F3200 X167.841 Y152.449
G1 F1500 X175.18 Y145.111 E95.66131
G0 F3200 X175.717 Y145.111
G1 F1500 X167.841 Y152.986 E96.01322
G0 F3200 X167.841 Y153.524
